X:1
T:Ireland
%%score ( 1 2 )
L:1/8
M:4/4
I:linebreak $
K:G
V:1 treble nm="Voice" snm="Voice"
V:2 treble 
V:1
"Em" EF/ GA | Be ef/e/ F4 | F2 D2 D/E/F/D/ | E>F GA | Be ee/f/ |$ ge af F4 | [Ae]4 e2 ef || %7
w: En * * *|En * * * En *|* Ba * * * *|||||
 g2 ff/ | ed BB/^c/ F4 |$ g2 ge/g/ fg/f/ | e2 x2 |"D" dA B/A/G/F/ |"Em" E2 E2 :| EG FA | GB ef | %15
w: ||||||||
 ge a2 f2 | %16
w: |
V:2
 x7/2 | x8 | x6 | x4 | x4 |$ x8 | x8 || x7/2 | x8 |$ x6 | ed B ^c | x4 | x4 :| x4 | x4 | x6 | %16
